X:2
T:Mo Anders (pols)
R:rorospols
Z:from workshop with Annar Gjelten
Z:also 97. Kaeggleken in Pols i Rorostraktom
M:3/4
L:1/8
K:G
|: "G"gd g2 g>b | "G"b<d g2 g>b | "D"ba a^g a>=g | "A"fe "D"d3 d
|  "G"gd g2 g>b | "C"AB c2 B>G | "D"A>d B/G/B A>F |[1 "G"G2 G4 :|[2 "G"G2 G3 B
|: "G"d2 dB "C"c>e | "G"d/B/d "D"c/A/c "G"B>G
| "D"A>B cB c>e |  "G"d/B/d "D"c/A/c "G"B>c
|  "G"d2 dB "C"c>e | "G"d/B/d "D"c/A/c "G"B>G
| "D"A>d B/G/B A>F | "G"G2 G3 B :|

